static/assets/img/icons/theme/food/burger.svg

<svg height="24" viewBox="0 0 24 24" width="24" xmlns="http://www.w3.org/2000/svg"><g fill="none" fill-rule="evenodd"><path d="m0 0h24v24h-24z" opacity="0"/><g fill="#000"><path d="m15 15 .9974233 1.1399123c.3636821.4156367.9954447.4577542 1.4110813.0940721.0334108-.0292344.0648377-.0606613.0940721-.0940721l.9974233-1.1399123h2.5c-.5814574 2.9072868-3.134157 5-6.0990195 5h-5.80196099c-2.96486247 0-5.51756214-2.0927132-6.09901951-5z"/><path d="m21 9h-18c.58145737-2.90728684 3.13415704-5 6.09901951-5h5.80196099c2.9648625 0 5.5175621 2.09271316 6.0990195 5z"/><rect height="2" opacity=".3" rx="1" width="20" x="2" y="11"/></g></g></svg>

<svg width="24px" height="24px" viewBox="0 0 24 24" version="1.1" xmlns="http://www.w3.org/2000/svg" xmlns:xlink="http://www.w3.org/1999/xlink">
    <title>Icon For Burger</title>
    <g stroke="none" stroke-width="1" fill="none" fill-rule="evenodd">
        <rect opacity="0" x="0" y="0" width="24" height="24"></rect>
        <path d="M15,15 L15.9974233,16.1399123 C16.3611054,16.555549 16.992868,16.5976665 17.4085046,16.2339844 C17.4419154,16.20475 17.4733423,16.1733231 17.5025767,16.1399123 L18.5,15 L21,15 C20.4185426,17.9072868 17.865843,20 14.9009805,20 L9.09901951,20 C6.13415704,20 3.58145737,17.9072868 3,15 L15,15 Z" fill="#000000"></path>
        <path d="M21,9 L3,9 L3,9 C3.58145737,6.09271316 6.13415704,4 9.09901951,4 L14.9009805,4 C17.865843,4 20.4185426,6.09271316 21,9 Z" fill="#000000"></path>
        <rect fill="#000000" opacity="0.3" x="2" y="11" width="20" height="2" rx="1"></rect>
    </g>
</svg>
